assets/Input latin letters/Flat/input_latin_letters_flat.svg

<svg width="32" height="32" viewBox="0 0 32 32" fill="none" xmlns="http://www.w3.org/2000/svg">
<path d="M2 6C2 3.79086 3.79086 2 6 2H26C28.2091 2 30 3.79086 30 6V26C30 28.2091 28.2091 30 26 30H6C3.79086 30 2 28.2091 2 26V6Z" fill="#00A6ED"/>
<path d="M12.78 19.92C12.78 20.37 13.15 20.74 13.6 20.74C13.9303 20.74 14.2174 20.5407 14.3469 20.2568C14.8456 20.5632 15.4324 20.74 16.06 20.74C17.87 20.74 19.34 19.27 19.34 17.46V16.27C19.34 14.46 17.87 12.99 16.06 12.99C15.4628 12.99 14.9026 13.15 14.42 13.4295V10.08C14.42 9.63001 14.05 9.26001 13.6 9.26001C13.15 9.26001 12.78 9.63001 12.78 10.08V19.92ZM14.42 16.27C14.42 15.37 15.16 14.63 16.06 14.63C16.96 14.63 17.7 15.37 17.7 16.27V17.46C17.7 18.36 16.96 19.1 16.06 19.1C15.16 19.1 14.42 18.36 14.42 17.46V16.27Z" fill="#F4F4F4"/>
<path d="M23.49 20.74C21.68 20.74 20.21 19.27 20.21 17.46V16.27C20.21 14.46 21.68 12.99 23.49 12.99C24.88 12.99 26.12 13.87 26.59 15.18C26.74 15.61 26.52 16.08 26.09 16.23C25.66 16.38 25.19 16.16 25.04 15.73C24.81 15.07 24.19 14.63 23.49 14.63C22.59 14.63 21.85 15.37 21.85 16.27V17.46C21.85 18.36 22.59 19.1 23.49 19.1C24.18 19.1 24.81 18.66 25.04 18C25.19 17.57 25.66 17.35 26.09 17.5C26.52 17.65 26.74 18.12 26.59 18.55C26.12 19.86 24.88 20.74 23.49 20.74Z" fill="#F4F4F4"/>
<path d="M9.99722 20.1629C10.1017 20.4958 10.4145 20.74 10.7801 20.74C11.2301 20.74 11.6001 20.37 11.6001 19.92V15.96C11.6001 14.32 10.2701 12.99 8.63006 12.99H6.67999C6.22999 12.99 5.85999 13.36 5.85999 13.81C5.85999 14.26 6.22999 14.63 6.67999 14.63H8.63006C9.36006 14.63 9.96006 15.22 9.96006 15.96V16.2H7.65C6.4 16.2 5.38 17.22 5.38 18.47C5.38 19.72 6.4 20.74 7.65 20.74H8.14001C8.82751 20.74 9.46741 20.5264 9.99722 20.1629ZM6.87 18.47C6.87 18.04 7.22001 17.69 7.65 17.69H9.92C9.81001 18.57 9.05 19.25 8.14001 19.25H7.65C7.22001 19.25 6.87 18.9 6.87 18.47Z" fill="#F4F4F4"/>
</svg>

<svg xmlns="http://www.w3.org/2000/svg" width="32" height="32" fill="none"><path fill="#00A6ED" d="M2 6a4 4 0 0 1 4-4h20a4 4 0 0 1 4 4v20a4 4 0 0 1-4 4H6a4 4 0 0 1-4-4V6Z"/><path fill="#F4F4F4" d="M12.78 19.92c0 .45.37.82.82.82.33 0 .617-.2.747-.483a3.282 3.282 0 0 0 4.993-2.797v-1.19a3.282 3.282 0 0 0-4.92-2.84v-3.35c0-.45-.37-.82-.82-.82-.45 0-.82.37-.82.82v9.84Zm1.64-3.65c0-.9.74-1.64 1.64-1.64.9 0 1.64.74 1.64 1.64v1.19c0 .9-.74 1.64-1.64 1.64-.9 0-1.64-.74-1.64-1.64v-1.19ZM23.49 20.74c-1.81 0-3.28-1.47-3.28-3.28v-1.19c0-1.81 1.47-3.28 3.28-3.28a3.3 3.3 0 0 1 3.1 2.19c.15.43-.07.9-.5 1.05a.82.82 0 0 1-1.05-.5c-.23-.66-.85-1.1-1.55-1.1-.9 0-1.64.74-1.64 1.64v1.19c0 .9.74 1.64 1.64 1.64.69 0 1.32-.44 1.55-1.1a.82.82 0 0 1 1.05-.5c.43.15.65.62.5 1.05a3.3 3.3 0 0 1-3.1 2.19ZM9.997 20.163a.825.825 0 0 0 .783.577c.45 0 .82-.37.82-.82v-3.96a2.97 2.97 0 0 0-2.97-2.97H6.68c-.45 0-.82.37-.82.82 0 .45.37.82.82.82h1.95c.73 0 1.33.59 1.33 1.33v.24H7.65c-1.25 0-2.27 1.02-2.27 2.27s1.02 2.27 2.27 2.27h.49c.688 0 1.327-.214 1.857-.577ZM6.87 18.47c0-.43.35-.78.78-.78h2.27c-.11.88-.87 1.56-1.78 1.56h-.49c-.43 0-.78-.35-.78-.78Z"/></svg>
